local/share/icons/dracula-icons-main/22/actions/new-24h-appointment.svg

<svg xmlns="http://www.w3.org/2000/svg" width="22" height="22" version="1.1" viewBox="0 0 22 22">
 <defs>
  <style id="current-color-scheme" type="text/css">
   .ColorScheme-Text { color:#FFFFFF; } .ColorScheme-Highlight { color:#5294e2; }
  </style>
 </defs>
 <path style="fill:currentColor" class="ColorScheme-Text" d="M 10.5,4 A 7.5,7.5 0 0 0 3,11.5 7.5,7.5 0 0 0 10.5,19 7.5,7.5 0 0 0 18,11.5 7.5,7.5 0 0 0 10.5,4 Z M 6,7 l 3,0 1,0 0,1 0,3 0,1 -3,0 0,3 3,0 0,1 -4,0 0,-1 0,-3 0,-1 1,0 2,0 L 9,8 6,8 6,7 Z m 5,0 1,0 0,4 2,0 0,-4 1,0 0,4 0,1 0,4 -1,0 0,-4 -3,0 0,-1 0,-4 z"/>
</svg>

<?xml version="1.0" encoding="UTF-8"?>
<svg xmlns="http://www.w3.org/2000/svg" xmlns:xlink="http://www.w3.org/1999/xlink" width="22" height="22" viewBox="0 0 22 22">
<path fill-rule="nonzero" fill="rgb(100%, 100%, 100%)" fill-opacity="1" d="M 10.5 4 C 6.359375 4 3 7.359375 3 11.5 C 3 15.640625 6.359375 19 10.5 19 C 14.640625 19 18 15.640625 18 11.5 C 18 7.359375 14.640625 4 10.5 4 Z M 6 7 L 10 7 L 10 12 L 7 12 L 7 15 L 10 15 L 10 16 L 6 16 L 6 11 L 9 11 L 9 8 L 6 8 Z M 11 7 L 12 7 L 12 11 L 14 11 L 14 7 L 15 7 L 15 16 L 14 16 L 14 12 L 11 12 Z M 11 7 "/>
</svg>
